X: 1
T: T'khies ha-Meysim    [Em]
T: (Resurrection of the Dead)
D: Epstein Bros "Kings of Freylekh Land" 1993
S: transcr: Steve Rauch
Z: 2017 John Chambers <jc:trillian.mit.edu>
M: 4/4
L: 1/8
K: Em
|: "Em"BBBB   B2AG   | ABG2 G2G2 | "B7"FG^AB AGFE | "Em"FGE2 E2E2 :|
|: "Em"B,2EB, EB,EB, | E2GE GEGE | "B7"FG^AB AGFE | "Em"FGE2 E2E2 :|
